X: 32360
T: Piobaireachd
R: waltz
M: 3/4
K: Bminor
d ef|:B2 {c}Bd ef|B2 {c}Bd ef|A2 Ff e<f|^GB AF ef|
B2 {c}Bd ef|B2 {c}BA F/E/D|E2 Ed cA|1 B2 {c}Bd ef:|2 B2 {c}Bf ef||
b2 Bb af|ea f{g}f ed|e2 e{g}f ed|{Bc}BA Bf ef|
b2 Bb af|ea ff f/a/f|fg {g}fe d/B/A|B2 {c}Bd ef|
F2 Fd ef|F2 de B/A/F|E2 EF AB|^G/A/G/E/ Fd ef|
F2 {G}Fd ef|F2 {g}fe d/B/A|B2 BA Bb|b3 z bc'|
c'd' c'b b/a/f|bc' af fa|ab fa ef|dB Ba bc'|
c'd' c'b b/a/f|ab ^gd (e2|e)a gf e/f/d|B3 d ef|
|:F2 {G}Fd ef|F2 dB AF|E2 EF AB|^GE Fd ef|
F2 {G}Fd ef|F2 {G}FE FA|B2 B,C DA|1 A2 Bd ef:|2 F3||

